assets/fa/fa-sink.svg

<svg xmlns="http://www.w3.org/2000/svg" width="100%" height="100%" viewBox="-43.52 -43.52 599.04 599.04"><path d="M32 416a96 96 0 0096 96h256a96 96 0 0096-96v-32H32zm464-128h-96v-32h64a16 16 0 0016-16v-16a16 16 0 00-16-16h-80a32 32 0 00-32 32v48h-64V96a32 32 0 0164 0v16a16 16 0 0016 16h32a16 16 0 0016-16V96A96.16 96.16 0 00300.87 1.86C255.29 10.71 224 53.36 224 99.79V288h-64v-48a32 32 0 00-32-32H48a16 16 0 00-16 16v16a16 16 0 0016 16h64v32H16a16 16 0 00-16 16v32a16 16 0 0016 16h480a16 16 0 0016-16v-32a16 16 0 00-16-16z"/></svg>

<svg xmlns="http://www.w3.org/2000/svg" width="100%" height="100%" viewBox="-43.52 -43.52 599.04 599.04"><path d="M32,416a96,96,0,0,0,96,96H384a96,96,0,0,0,96-96V384H32ZM496,288H400V256h64a16,16,0,0,0,16-16V224a16,16,0,0,0-16-16H384a32,32,0,0,0-32,32v48H288V96a32,32,0,0,1,64,0v16a16,16,0,0,0,16,16h32a16,16,0,0,0,16-16V96A96.16,96.16,0,0,0,300.87,1.86C255.29,10.71,224,53.36,224,99.79V288H160V240a32,32,0,0,0-32-32H48a16,16,0,0,0-16,16v16a16,16,0,0,0,16,16h64v32H16A16,16,0,0,0,0,304v32a16,16,0,0,0,16,16H496a16,16,0,0,0,16-16V304A16,16,0,0,0,496,288Z"/></svg>
